X:220
T:Sarah Armstrong's Tune
L:1/8
M:C
K:D
DB,|"D"A,2D2"G"B,2D2|"D"A,2DE FEDF|"A"E2A2 "D"F2A2|"A"E2AB cBAF|
"D"A,2D2"G"B,2D2|"D"A,2DE FEDA|FAAB A2AB|"A"AGFE"D"D2:|
|:(3ABc|"D"d2dc dAFD|"A"E3F EFGA|"G"B2Bc BAFE|"D"D d2c dABc|
"D"d2dc dAFD|"A"E3F EFGA|"G"B2Bc BAFE|1"D"B,D2ED2:|2"D"B,D2E DEDB,|]
